src/img/benefits-7.svg

<svg width="50" height="48" viewBox="0 0 50 48" fill="none" xmlns="http://www.w3.org/2000/svg">
<rect x="27.9359" y="27.8945" width="9" height="9" rx="1" stroke="#B01736" stroke-width="2"/>
<path d="M9.14685 21.2354V35.1177V46.0001C9.14685 46.5524 9.59457 47.0001 10.1469 47.0001H39.9313C40.4836 47.0001 40.9313 46.5524 40.9313 46.0001V21.2354M23.1469 47.0001V28.8952C23.1469 28.3429 22.6991 27.8952 22.1469 27.8952H15.1469C14.5946 27.8952 14.1469 28.3429 14.1469 28.8952V47.0001" stroke="#B01736" stroke-width="2"/>
<path d="M3.44604 21H46.5508C47.9134 21 48.5185 19.3298 47.4582 18.4956L25.6178 1.31241C25.0828 0.891515 24.3177 0.8964 23.7884 1.32409L2.52403 18.5073C1.48226 19.3491 2.0929 21 3.44604 21Z" stroke="#B01736" stroke-width="2"/>
</svg>

<svg xmlns="http://www.w3.org/2000/svg" id="benefits-7" width="50" height="48" fill="none"><rect width="9" height="9" x="27.936" y="27.895" stroke="#B01736" stroke-width="2" rx="1"/><path stroke="#B01736" stroke-width="2" d="M9.147 21.235V46a1 1 0 0 0 1 1H39.93a1 1 0 0 0 1-1V21.235M23.147 47V28.895a1 1 0 0 0-1-1h-7a1 1 0 0 0-1 1V47M3.446 21h43.105c1.362 0 1.968-1.67.907-2.504L25.618 1.312a1.474 1.474 0 0 0-1.83.012L2.524 18.507C1.482 19.35 2.093 21 3.446 21Z"/></svg>
